common/svg/megaphone-icon.svg

<svg fill="none" height="20" viewBox="0 0 20 20" width="20" xmlns="http://www.w3.org/2000/svg"><g fill="#000"><path d="m15.9091 1.66663c-2.0047 0-9.00004 5.09088-9.00004 5.09088v6.18159s6.99534 5.0906 9.00004 5.0906c2.3322 0 4.0908-3.5173 4.0908-8.18152s-1.7586-8.18155-4.0908-8.18155zm0 14.54537c-.9267 0-2.2729-2.4789-2.2729-6.36382 0-3.88445 1.3462-6.36355 2.2729-6.36355.9268 0 2.2728 2.47888 2.2728 6.36355-.0002 3.88492-1.346 6.36382-2.2728 6.36382z"/><path d="m15.9091 12.3425c.6025 0 1.0909-1.1166 1.0909-2.49401 0-1.3774-.4884-2.494-1.0909-2.494s-1.0909 1.1166-1.0909 2.494c0 1.37741.4884 2.49401 1.0909 2.49401z"/><path d="m3.33331 17.6667c0 .6998.57289 1.2729 1.27267 1.2729h1.27289c.69977 0 1.27266-.5727 1.27266-1.2729v-1.9092-1.3828l-.24247-.208-.41667-.3184h-1.24997-1.90911z"/><path d="m5.81822 12.9391v-6.18153h-2.72733c-1.70689 0-3.09089 1.38355-3.09089 3.09066 0 1.70707 1.384 3.09087 3.09089 3.09087z"/></g></svg>

<svg width="20" height="20" viewBox="0 0 20 20" fill="none" xmlns="http://www.w3.org/2000/svg">
<path d="M15.9091 1.66663C13.9044 1.66663 6.90906 6.75751 6.90906 6.75751V12.9391C6.90906 12.9391 13.9044 18.0297 15.9091 18.0297C18.2413 18.0297 19.9999 14.5124 19.9999 9.84818C19.9999 5.18396 18.2413 1.66663 15.9091 1.66663ZM15.9091 16.212C14.9824 16.212 13.6362 13.7331 13.6362 9.84818C13.6362 5.96373 14.9824 3.48463 15.9091 3.48463C16.8359 3.48463 18.1819 5.96351 18.1819 9.84818C18.1817 13.7331 16.8359 16.212 15.9091 16.212Z" fill="black"/>
<path d="M15.9091 12.3425C16.5116 12.3425 17 11.2259 17 9.84849C17 8.47109 16.5116 7.35449 15.9091 7.35449C15.3066 7.35449 14.8182 8.47109 14.8182 9.84849C14.8182 11.2259 15.3066 12.3425 15.9091 12.3425Z" fill="black"/>
<path d="M3.33331 17.6667C3.33331 18.3665 3.9062 18.9396 4.60598 18.9396H5.87887C6.57864 18.9396 7.15153 18.3669 7.15153 17.6667V15.7575V14.3747L6.90906 14.1667L6.49239 13.8483H5.24242H3.33331V17.6667Z" fill="black"/>
<path d="M5.81822 12.9391V6.75757H3.09089C1.384 6.75757 0 8.14112 0 9.84823C0 11.5553 1.384 12.9391 3.09089 12.9391H5.81822Z" fill="black"/>
</svg>
